X: 38147
T: Sporting Nell
R: reel
M: 4/4
K: Dmixolydian
|:AD (3FED A2dB|ABAG EFGB|AD (3FED A2dB|ABGE EDD2:|
c2ec gcec|c2ec AddB|c2ec gcec|cAGE EDD2|
c2ec gcec|c2ec Adde|=f3d efed|cAGc Add2||

